X:20
T:Caledonia Dix.20
M:6/8
L:1/8
Q:1/4=60
S:Anon. MS dated 1811, from Dixon collection, Holton le Moor, Lincs.
R:air
C:
O:England;Lincolnshire;Holton le Moor
Z:vmp.R.Greig 2010 <http://www.village-music-project.org.uk>
K:D
F|B (d/c/) (B/^A/) B F F |F d c d F|F B (d/c/) (B/^A/) B F d|E F ^A B2 F|
w:Their groves o-f sw-eet thyst-les let for-eigh lands reck-on, When bright beam—ing sum-mers ex-hale their per-fume; Far
B (d/c/) (B/^A/) B F F |F d c d F F/ F/|G (A/G/) (F/E/) F (G/F/) (E/D/)|E F ^A B2 d|
w:dear–er t-o me yon lone glen of green Breck-en, Wi’ the burn steal—ing un–der th-e lang yell-ow broom. Far
A/B/ d d d2A|(d/c/) (d/e/) (f/g/) (af) d/ d/|g (a/g/) (f/e/) f d B|A F A B2d|
w:dear–er to me yon hum—ble br-oom bow-ers, Where the blue–bell a-nd gow-an lurk low-ly un-seen for
(A/B/) d d d d A|(d/c/) (d/e/) (f/g/) af d|g (a/g/) (f/e/) f d B|A F A B2:|
w:th-ere light-ly tripp-ing a–mang th-e w-ild flow-ers A-list-en-ing th-e linn-et oft wan-ders my Jean-

